Adwaita++-Dark/actions/16/escape-direction-right.svg

<svg height="16" viewBox="0 0 16 16" width="16" xmlns="http://www.w3.org/2000/svg">
  <path d="m1 .98046875v14.00000025h14v-14.00000025zm2 2.00000005h10v4h-3.2773438c-.34635-.59565-.9839812-1-1.7226562-1-1.1046 0-2 .8953999-2 2 0 1.1046.8954 2 2 2 .738675 0 1.3763063-.4043501 1.7226562-1h3.2773438v4.0000002h-10z" fill="#e6ddff"/>
</svg>

<svg xmlns="http://www.w3.org/2000/svg" width="16" height="16" viewBox="0 0 16 16">
 <defs>
  <style id="current-color-scheme" type="text/css">
   .ColorScheme-Text { color:#E6DDFF; } .ColorScheme-Highlight { color:#4285f4; }
  </style>
 </defs>
 <path style="fill:currentColor" class="ColorScheme-Text" d="M 1 0.98046875 L 1 14.980469 L 15 14.980469 L 15 0.98046875 L 1 0.98046875 z M 3 2.9804688 L 13 2.9804688 L 13 6.9804688 L 9.7226562 6.9804688 C 9.3763062 6.3848188 8.738675 5.9804688 8 5.9804688 C 6.8954 5.9804688 6 6.8758687 6 7.9804688 C 6 9.0850688 6.8954 9.9804688 8 9.9804688 C 8.738675 9.9804688 9.3763063 9.5761187 9.7226562 8.9804688 L 13 8.9804688 L 13 12.980469 L 3 12.980469 L 3 2.9804688 z"/>
</svg>
